img/master-image.svg

<svg xmlns="http://www.w3.org/2000/svg" width="3.528cm" height="3.528cm">
  <path fill="#F39D77" fill-rule="evenodd" d="M89.076 74.848l-24.623-6.476v-8.188c4.663-4.05 7.616-10.019 7.616-16.666v-3.73c4.39-.488 7.813-4.218 7.813-8.734 0-4.515-3.423-8.247-7.811-8.735v-1.811c0-7.784-6.103-14.17-13.775-14.623C57.094 2.461 53.829 0 49.999 0c-3.828 0-7.093 2.462-8.296 5.885-7.672.453-13.775 6.839-13.775 14.623v1.811c-4.388.488-7.812 4.219-7.812 8.735 0 4.517 3.424 8.247 7.813 8.734v3.73c0 6.647 2.954 12.617 7.618 16.666v8.188l-24.624 6.476C4.39 76.566-.001 82.26-.001 89.015v8.055a2.93 2.93 0 0 0 5.86 0v-8.055c0-4.053 2.634-7.469 6.554-8.5l1.259-.331v16.885a2.929 2.929 0 1 0 5.859 0V78.643l5.859-1.54v12.545a2.93 2.93 0 0 0 2.93 2.93h43.359a2.93 2.93 0 0 0 2.93-2.93V77.103l5.859 1.54v18.426a2.93 2.93 0 0 0 5.86 0V80.184l1.258.331c3.921 1.031 6.555 4.447 6.555 8.5v8.055a2.93 2.93 0 1 0 5.858 0v-8.055c0-6.755-4.39-12.449-10.923-14.167zm-63.1-43.794a2.932 2.932 0 0 1 2.929-2.929h1.953a2.93 2.93 0 0 0 2.93-2.93v-4.687c0-4.382 3.223-8.023 7.423-8.682v3.799a2.93 2.93 0 1 0 5.859 0V8.791v-.002a2.933 2.933 0 0 1 2.929-2.93 2.933 2.933 0 0 1 2.93 2.93v6.836a2.93 2.93 0 0 0 5.86 0v-3.799c4.2.659 7.423 4.301 7.423 8.682v4.687a2.93 2.93 0 0 0 2.929 2.93h1.952a2.933 2.933 0 0 1 2.93 2.929 2.933 2.933 0 0 1-2.93 2.93H28.905a2.932 2.932 0 0 1-2.929-2.93zm7.813 12.464v-3.674h32.422v3.674c0 8.938-7.272 16.211-16.212 16.211-8.939 0-16.21-7.273-16.21-16.211zm16.21 22.07c3.047 0 5.952-.621 8.594-1.742v6.616a12.503 12.503 0 0 1-8.676 3.507 12.467 12.467 0 0 1-8.511-3.348v-6.775a21.948 21.948 0 0 0 8.593 1.742zm18.75 21.131h-37.5V75.561l5.388-1.416a18.32 18.32 0 0 0 13.28 5.684c5.041 0 9.855-2.078 13.313-5.72l5.519 1.452v11.158z"/>
</svg>

<svg
 xmlns="http://www.w3.org/2000/svg"
 xmlns:xlink="http://www.w3.org/1999/xlink"
 width="3.528cm" height="3.528cm">
<path fill-rule="evenodd"  fill="rgb(243, 157, 119)"
 d="M89.076,74.848 L64.453,68.372 L64.453,60.184 C69.116,56.134 72.069,50.165 72.069,43.518 L72.069,39.788 C76.459,39.300 79.882,35.570 79.882,31.054 C79.882,26.539 76.459,22.807 72.071,22.319 L72.071,20.508 C72.071,12.724 65.968,6.338 58.296,5.885 C57.094,2.461 53.829,-0.000 49.999,-0.000 C46.171,-0.000 42.906,2.462 41.703,5.885 C34.031,6.338 27.928,12.724 27.928,20.508 L27.928,22.319 C23.540,22.807 20.116,26.538 20.116,31.054 C20.116,35.571 23.540,39.301 27.929,39.788 L27.929,43.518 C27.929,50.165 30.883,56.135 35.547,60.184 L35.547,68.372 L10.923,74.848 C4.390,76.566 -0.001,82.260 -0.001,89.015 L-0.001,97.070 C-0.001,98.688 1.311,100.000 2.929,100.000 C4.547,100.000 5.859,98.688 5.859,97.070 L5.859,89.015 C5.859,84.962 8.493,81.546 12.413,80.515 L13.672,80.184 L13.672,97.069 C13.672,98.687 14.983,99.998 16.601,99.998 C18.220,99.998 19.531,98.687 19.531,97.069 L19.531,78.643 L25.390,77.103 L25.390,89.648 C25.390,91.266 26.701,92.578 28.320,92.578 L71.679,92.578 C73.297,92.578 74.609,91.266 74.609,89.648 L74.609,77.103 L80.468,78.643 L80.468,97.069 C80.468,98.687 81.780,99.999 83.398,99.999 C85.016,99.999 86.328,98.687 86.328,97.069 L86.328,80.184 L87.586,80.515 C91.507,81.546 94.141,84.962 94.141,89.015 L94.141,97.070 C94.141,98.688 95.452,100.000 97.070,100.000 C98.688,100.000 99.999,98.688 99.999,97.070 L99.999,89.015 C99.999,82.260 95.609,76.566 89.076,74.848 L89.076,74.848 ZM25.976,31.054 C25.976,29.439 27.289,28.125 28.905,28.125 L30.858,28.125 C32.476,28.125 33.788,26.813 33.788,25.195 L33.788,20.508 C33.788,16.126 37.011,12.485 41.211,11.826 L41.211,15.625 C41.211,17.243 42.522,18.555 44.140,18.555 C45.758,18.555 47.070,17.243 47.070,15.625 L47.070,8.791 C47.070,8.791 47.070,8.790 47.070,8.789 C47.070,7.174 48.384,5.859 49.999,5.859 C51.615,5.859 52.929,7.174 52.929,8.789 L52.929,15.625 C52.929,17.243 54.241,18.555 55.859,18.555 C57.477,18.555 58.789,17.243 58.789,15.625 L58.789,11.826 C62.989,12.485 66.212,16.127 66.212,20.508 L66.212,25.195 C66.212,26.813 67.523,28.125 69.141,28.125 L71.093,28.125 C72.709,28.125 74.023,29.439 74.023,31.054 C74.023,32.670 72.709,33.984 71.093,33.984 L28.905,33.984 C27.289,33.984 25.976,32.670 25.976,31.054 L25.976,31.054 ZM33.789,43.518 L33.789,39.844 L66.211,39.844 L66.211,43.518 C66.211,52.456 58.939,59.729 49.999,59.729 C41.060,59.729 33.789,52.456 33.789,43.518 L33.789,43.518 ZM49.999,65.588 C53.046,65.588 55.951,64.967 58.593,63.846 L58.593,70.462 C56.273,72.700 53.165,73.969 49.917,73.969 C46.732,73.969 43.706,72.763 41.406,70.621 L41.406,63.846 C44.048,64.967 46.952,65.588 49.999,65.588 L49.999,65.588 ZM68.749,86.719 L31.249,86.719 L31.249,75.561 L36.637,74.145 C40.093,77.769 44.872,79.829 49.917,79.829 C54.958,79.829 59.772,77.751 63.230,74.109 L68.749,75.561 L68.749,86.719 Z"/>
</svg>
